www/assets/icons/person_search.svg

<svg xmlns="http://www.w3.org/2000/svg" width="24" height="24" viewBox="0 0 24 24" fill='currentColor'><path d="M10 11a4 4 0 1 0 0-8 4 4 0 0 0 0 8m.35 2.01C7.62 12.91 2 14.27 2 17v2h9.54c-2.47-2.76-1.23-5.89-1.19-5.99m9.08 4.01c.36-.59.57-1.28.57-2.02 0-2.21-1.79-4-4-4s-4 1.79-4 4 1.79 4 4 4c.74 0 1.43-.22 2.02-.57L20.59 21 22 19.59zM16 17c-1.1 0-2-.9-2-2s.9-2 2-2 2 .9 2 2-.9 2-2 2"/></svg>

<svg width="24" height="24" viewBox="0 0 24 24" xmlns="http://www.w3.org/2000/svg" fill='currentColor'><path d="M10 11C12.2091 11 14 9.20914 14 7C14 4.79086 12.2091 3 10 3C7.79086 3 6 4.79086 6 7C6 9.20914 7.79086 11 10 11Z"/><path d="M10.35 13.01C7.62 12.91 2 14.27 2 17V19H11.54C9.07 16.24 10.31 13.11 10.35 13.01Z"/><path d="M19.43 17.02C19.79 16.43 20 15.74 20 15C20 12.79 18.21 11 16 11C13.79 11 12 12.79 12 15C12 17.21 13.79 19 16 19C16.74 19 17.43 18.78 18.02 18.43L20.59 21L22 19.59L19.43 17.02ZM16 17C14.9 17 14 16.1 14 15C14 13.9 14.9 13 16 13C17.1 13 18 13.9 18 15C18 16.1 17.1 17 16 17Z"/></svg>
